gtk-icons/Papirus-GTK/22x22/panel/caffeine-cup-full.svg

<?xml version="1.0" encoding="UTF-8" standalone="no"?>
<!-- Created with Inkscape (http://www.inkscape.org/) -->

<svg
   xmlns:osb="http://www.openswatchbook.org/uri/2009/osb"
   xmlns:dc="http://purl.org/dc/elements/1.1/"
   xmlns:cc="http://creativecommons.org/ns#"
   xmlns:rdf="http://www.w3.org/1999/02/22-rdf-syntax-ns#"
   xmlns:svg="http://www.w3.org/2000/svg"
   xmlns="http://www.w3.org/2000/svg"
   xmlns:sodipodi="http://sodipodi.sourceforge.net/DTD/sodipodi-0.dtd"
   xmlns:inkscape="http://www.inkscape.org/namespaces/inkscape"
   sodipodi:docname="caffeine-cup-full.svg"
   inkscape:export-filename="/home/sam/source-symbolic.png"
   inkscape:export-xdpi="270"
   inkscape:export-ydpi="270"
   height="22"
   id="svg7384"
   style="enable-background:new"
   version="1.1"
   inkscape:version="0.91 r"
   width="22">
  <sodipodi:namedview
     inkscape:bbox-nodes="false"
     inkscape:bbox-paths="false"
     bordercolor="#666666"
     borderlayer="false"
     borderopacity="1"
     inkscape:current-layer="layer9"
     inkscape:cx="9.3272028"
     inkscape:cy="14.183392"
     gridtolerance="10"
     inkscape:guide-bbox="true"
     guidetolerance="10"
     id="namedview88"
     inkscape:object-nodes="true"
     inkscape:object-paths="true"
     objecttolerance="10"
     pagecolor="#f7f7f7"
     inkscape:pageopacity="1"
     inkscape:pageshadow="2"
     showborder="true"
     showgrid="false"
     showguides="false"
     inkscape:showpageshadow="false"
     inkscape:snap-bbox="true"
     inkscape:snap-bbox-edge-midpoints="false"
     inkscape:snap-bbox-midpoints="false"
     inkscape:snap-center="false"
     inkscape:snap-global="true"
     inkscape:snap-grids="true"
     inkscape:snap-intersection-paths="true"
     inkscape:snap-midpoints="true"
     inkscape:snap-nodes="true"
     inkscape:snap-object-midpoints="true"
     inkscape:snap-others="true"
     inkscape:snap-page="false"
     inkscape:snap-smooth-nodes="true"
     inkscape:snap-to-guides="true"
     inkscape:window-height="876"
     inkscape:window-maximized="1"
     inkscape:window-width="1535"
     inkscape:window-x="65"
     inkscape:window-y="24"
     inkscape:zoom="24.48">
    <inkscape:grid
       color="#000000"
       dotted="false"
       empcolor="#0800ff"
       empopacity="0.4627451"
       empspacing="4"
       enabled="true"
       id="grid4866"
       opacity="0.16470588"
       originx="-304.00021"
       originy="-612.01034"
       snapvisiblegridlinesonly="true"
       spacingx="0.25px"
       spacingy="0.25px"
       type="xygrid"
       visible="true" />
  </sodipodi:namedview>
  <metadata
     id="metadata90">
    <rdf:RDF>
      <cc:Work
         rdf:about="">
        <dc:format>image/svg+xml</dc:format>
        <dc:type
           rdf:resource="http://purl.org/dc/dcmitype/StillImage" />
        <dc:title>Paper Symbolic Icon Theme</dc:title>
      </cc:Work>
    </rdf:RDF>
  </metadata>
  <title
     id="title8473">Paper Symbolic Icon Theme</title>
  <defs
     id="defs7386">
    <linearGradient
       id="linearGradient5606"
       osb:paint="solid">
      <stop
         id="stop5608"
         offset="0"
         style="stop-color:#000000;stop-opacity:1;" />
    </linearGradient>
    <filter
       inkscape:collect="always"
       id="filter7554"
       style="color-interpolation-filters:sRGB">
      <feBlend
         inkscape:collect="always"
         id="feBlend7556"
         in2="BackgroundImage"
         mode="darken" />
    </filter>
  </defs>
  <g
     inkscape:groupmode="layer"
     id="layer9"
     inkscape:label="status"
     style="display:inline"
     transform="translate(-545.00041,401.01034)">
    <path
       style="opacity:1;fill:#ffffff;fill-opacity:1;stroke:none;stroke-width:1;stroke-linecap:round;stroke-linejoin:round;stroke-miterlimit:3.42857146;stroke-dasharray:none;stroke-opacity:1"
       d="M 12.802734 3 C 12.802734 3 13.429831 3.6108344 12.332031 5.3652344 C 11.111071 7.3062844 13.642578 8 13.642578 8 C 13.642578 8 12.653835 7.3042475 13.546875 5.8984375 C 14.896975 3.7772175 12.802734 3 12.802734 3 z M 9.8027344 4 C 9.8027344 4 10.429831 4.6108344 9.3320312 6.3652344 C 8.1110713 8.3062844 10.642578 9 10.642578 9 C 10.642578 9 9.653835 8.3042475 10.546875 6.8984375 C 11.896975 4.7772175 9.8027344 4 9.8027344 4 z M 14.802734 5 C 14.802734 5 15.429831 5.6108344 14.332031 7.3652344 C 13.111071 9.3062844 15.642578 10 15.642578 10 C 15.642578 10 14.653835 9.3042475 15.546875 7.8984375 C 16.896975 5.7772175 14.802734 5 14.802734 5 z M 15.642578 10 L 5 10 C 5 10 5.3537906 10.925578 5.4003906 11.111328 C 3.9087206 11.482998 3 12.89327 3 14.5 C 3 16.39354 4.5341944 17.857422 6.4277344 17.857422 C 6.7145444 17.857422 6.9895794 17.812454 7.2558594 17.746094 L 7.5 19 L 16.714844 19 L 19 10 L 15.642578 10 z M 5.8007812 12.220703 C 5.8007812 12.220703 6.6189619 15.188768 6.9824219 16.642578 C 6.3772619 16.763268 5.31975 16.18999 5 15 C 4.67282 13.77954 5.1901912 12.382893 5.8007812 12.220703 z "
       transform="translate(545.00041,-401.01034)"
       id="rect4153" />
    <g
       id="layer1-0"
       inkscape:label="places"
       style="display:inline"
       transform="translate(494.73356,-808.10088)" />
    <g
       id="layer14-9"
       inkscape:label="mimetypes"
       style="display:inline"
       transform="translate(253.73336,-191.10088)" />
    <g
       id="layer15-5"
       inkscape:label="emblems"
       style="display:inline"
       transform="translate(253.73336,-191.10088)" />
    <g
       id="g71291-6"
       inkscape:label="emotes"
       style="display:inline"
       transform="translate(253.73336,-191.10088)" />
    <g
       id="layer2-1"
       inkscape:label="categories"
       style="display:inline"
       transform="translate(494.73356,-658.10088)" />
    <g
       id="g6058-8"
       inkscape:label="apps"
       style="display:inline"
       transform="translate(494.73356,-658.10088)" />
    <g
       id="layer12-8"
       inkscape:label="actions"
       style="display:inline"
       transform="translate(253.73336,-191.10088)" />
  </g>
  <g
     inkscape:groupmode="layer"
     id="layer10"
     inkscape:label="devices"
     style="display:inline;filter:url(#filter7554)"
     transform="translate(-545.00041,401.01034)" />
  <g
     inkscape:groupmode="layer"
     id="layer1"
     inkscape:label="places"
     style="display:inline"
     transform="translate(-304.00021,-215.98966)" />
  <g
     inkscape:groupmode="layer"
     id="layer14"
     inkscape:label="mimetypes"
     style="display:inline"
     transform="translate(-545.00041,401.01034)" />
  <g
     inkscape:groupmode="layer"
     id="layer15"
     inkscape:label="emblems"
     style="display:inline"
     transform="translate(-545.00041,401.01034)" />
  <g
     inkscape:groupmode="layer"
     id="g71291"
     inkscape:label="emotes"
     style="display:inline"
     transform="translate(-545.00041,401.01034)" />
  <g
     inkscape:groupmode="layer"
     id="layer2"
     inkscape:label="categories"
     style="display:inline"
     transform="translate(-304.00021,-65.98966)" />
  <g
     inkscape:groupmode="layer"
     id="g6058"
     inkscape:label="apps"
     style="display:inline"
     transform="translate(-304.00021,-65.98966)" />
  <g
     inkscape:groupmode="layer"
     id="layer12"
     inkscape:label="actions"
     style="display:inline"
     transform="translate(-545.00041,401.01034)" />
</svg>

<?xml version="1.0" encoding="UTF-8" standalone="no"?>
<!-- Created with Inkscape (http://www.inkscape.org/) -->
<svg id="svg7384" xmlns:rdf="http://www.w3.org/1999/02/22-rdf-syntax-ns#" style="enable-background:new" xmlns="http://www.w3.org/2000/svg" xmlns:osb="http://www.openswatchbook.org/uri/2009/osb" height="22" width="22" version="1.1" xmlns:cc="http://creativecommons.org/ns#" xmlns:dc="http://purl.org/dc/elements/1.1/">
 <metadata id="metadata90">
  <rdf:RDF>
   <cc:Work rdf:about="">
    <dc:format>image/svg+xml</dc:format>
    <dc:type rdf:resource="http://purl.org/dc/dcmitype/StillImage"/>
    <dc:title>Paper Symbolic Icon Theme</dc:title>
   </cc:Work>
  </rdf:RDF>
 </metadata>
 <title id="title8473">Paper Symbolic Icon Theme</title>
 <defs id="defs7386">
  <filter id="filter7554" style="color-interpolation-filters:sRGB">
   <feBlend id="feBlend7556" in2="BackgroundImage" mode="darken"/>
  </filter>
 </defs>
 <g id="layer9" transform="translate(-545 401.01)">
  <path id="rect4153" d="m12.803 3s0.627 0.6108-0.471 2.3652c-1.221 1.9411 1.311 2.6348 1.311 2.6348s-0.989-0.6958-0.096-2.1016c1.35-2.1212-0.744-2.8984-0.744-2.8984zm-3.0003 1s0.6273 0.6108-0.4707 2.3652c-1.2209 1.9411 1.311 2.6348 1.311 2.6348s-0.9892-0.6958-0.096-2.1016c1.35-2.1212-0.7443-2.8984-0.7443-2.8984zm5.0003 1s0.627 0.6108-0.471 2.3652c-1.221 1.9411 1.311 2.6348 1.311 2.6348s-0.989-0.6958-0.096-2.1016c1.35-2.1212-0.744-2.8984-0.744-2.8984zm0.84 5h-10.643s0.3538 0.926 0.4004 1.111c-1.4917 0.372-2.4004 1.782-2.4004 3.389 0 1.894 1.5342 3.357 3.4277 3.357 0.2868 0 0.5619-0.045 0.8282-0.111l0.2441 1.254h9.215l2.285-9h-3.357zm-9.8422 2.221s0.8182 2.968 1.1816 4.422c-0.6051 0.12-1.6626-0.453-1.9824-1.643-0.3272-1.22 0.1902-2.617 0.8008-2.779z" transform="translate(545 -401.01)" fill="#fff"/>
 </g>
</svg>
